X: 30794
T: Other Clog, The
R: polka
M: 2/4
K: Gmajor
BG G>A|BG GB|AD FG|AB c>A|
BD G>A|BG GB|AD FG|1 AG Gd:|2 AG GD||
Bd ce|dg B>e|dc Ad|fd B2|
Bd ce|dg B>e|dc AF|G2 GD:|
BD GD|BD GD|A2 AD|AB c>A|
BD GD|BD Ge|d2 cA|1 AG G2:|2 AG GD||
Bd ce|dg B>e|dc Ad|fd B2|
Bd ce|dg B>e|dc AF|1 G2 GD:|2 G2 G2||

